X: 21032
T: BELLADRUM HOUSE -- Strathspey
R: strathspey
B: K\"ohler's Violin Repository, v.2, 1885 p.103 #2
F: http://www.archive.org/details/klersviolinrepos02rugg
Z: 2012 John Chambers <jc:trillian.mit.edu>
M: C|
L: 1/8
K: D
uF |\
(D/E/F) (F<B) A<F(F>B) | (A<F)(F>D) ([E3A,3]F) |\
(D/E/F) (F<B) A<F(F>G) | (F<A) (A>C) D3 :|
uf |\
(.d>.A)(.f>.A) (.g>.A) (.f>.A) | (.d>.A)(.f>.d) e2(e>f) |\
(.d>.A)(.f>.A) (.g>.A)(.f>.A) | (3fga (3gfe (3dAF (3Dfe |
(d>f)(A>f) (d>f)(A>f) | (3def (3fed e2 (e>f) |\
(d>f) (3efd (3cdB (3ABG | (3FAG (3EGF "Segue Reel."D2 "_D.C."|]

%%sep 2 1 500

